X:1
T:Title
%%score { 1 | ( 2 3 ) }
L:1/8
M:3/4
K:Db
V:1 treble nm="Grand Piano"
V:2 bass 
V:3 bass 
V:1
 z2 z2[Q:1/4=106] [FA]2 | [FA]4 [_F=G][=FA] | [GB]2 [FA]2 [DF]2 | [FA]2 [Fd]2 [DF]2 | [FA]4 [FA]2 | %5
 [CEA]4 [CE][DF] | [EG]2 [DF]2 [EG]2 | [Gc]2 [GB]2 [CE]2 | [DF]4 [FA]2 | [FA]4 [_F=G][=FA] | %10
 [GB]2 [FA]2 [DF]2 | [FA]2 [Af]2 [Fd]2 | [FA]4 [FA]2 | B3 =A B2 | e2 d2 B2 | A2 d2 c2 | %16
[M:2/4] [Fd]4 |[M:1/4] [FA]2 |[M:3/4] [Fd]2 [Fd]2 [FA]2 | [GB]2 [FA]2 [FA]2 | [Fd]2 [Ge]2 [Fd]2 | %21
 [FA]4 [FA]2 | B3 B B2 | [=GB]2 [Ge]2 [Gd]2 | c2 c2 d2 | e4 A2 | [Af]2 [Fd]2 [GB]2 | %27
 [FA]2 [DF]2 [FA]2 | [Af]2 .[Ge]2 .[DGc]2 | [FA]4 [FA]2 | B2 B2 A2 | [Gc]2 [Gc]2 [Fd]2 | e2 d2 c2 | %33
[M:2/4] [Fd]4 |] %34
V:2
 z2 z2 [D,D]2 | [D,D]4 [D,D][D,D] | [D,D]2 [D,D]2 [D,A,]2 | [D,A,]2 [D,A,]2 [D,A,]2 | %4
 [D,D]4 [D,D]2 | A,,4 [A,,A,][A,,A,] | [A,,A,]2 [A,,A,]2 [A,,A,]2 | [A,,A,]2 [A,,A,]2 [A,,A,]2 | %8
 [D,A,]4 [D,D]2 | [D,D]4 [D,D][D,D] | [D,D]2 [D,D]2 [D,A,]2 | [D,D]2 [D,D]2 [D,A,]2 | %12
 [D,D]4 [D,D]2 | [G,DG]3 [G,CG] [G,DG]2 | [G,B,G]2 [G,B,G]2 [G,DG]2 | [A,DF]2 [A,F]2 [A,G]2 | %16
[M:2/4][K:bass] [D,A,]4 |[M:1/4] [D,D]2 |[M:3/4] [D,A,]2 [D,A,]2 [D,D]2 | [D,D]2 [D,D]2 [D,D]2 | %20
 [D,A,]2 [D,A,]2 [D,A,]2 | [D,D]4 [D,D]2 | [G,DG]3 [G,DG] [G,DG]2 | [E,E]2 [E,B,]2 [E,E]2 | %24
 [A,EA]2 [A,EA]2 [B,D=G]2 | [A,CG]4 A,2 | [D,D]2 [D,A,]2 [D,D]2 | [D,D]2 [D,A,]2 [D,D]2 | %28
 [D,D]2 z[K:treble] d z B | [D,D]4 [D,D]2 | [G,DG]2 [G,DG]2 [F,D]2 | [E,A,]2 [E,A,]2 [D,A,]2 | %32
 [G,B,G]2 [A,F]2[K:bass] [A,E]2 |[M:2/4] [D,A,]4 |] %34
V:3
 x6 | x6 | x6 | x6 | x6 | x6 | x6 | x6 | x6 | x6 | x6 | x6 | x6 | x6 | x6 | x6 | %16
[M:2/4][K:bass] x4 |[M:1/4] x2 |[M:3/4] x6 | x6 | x6 | x6 | x6 | x6 | x6 | x6 | x6 | x6 | %28
 z2 [D,B,]2[K:treble] D,2 | x6 | x6 | x6 | x4[K:bass] x2 |[M:2/4] x4 |] %34

